X:95
T:Mulligan's Barndance
R:hornpipe
C:Paul S. Cranford
O:Cape Breton Island
S:http://www.cranfordpub.com
D:currently unrecorded
B:currently unpublished in book form
Z:psc, (re-formatted,updated 9/17/04)
N:
H:                                                        copyrights Cranford Publications, SOCAN
L:1/8
Q:288
M:C
K:G
Bc|d^cec dBGB|cBdB cAFA|BGce dBGE|FAdf eBc^c|
d^cec dBGB|cBdB cAFA|BGce dBge|(3fed (3cBA G2:|
|:DF/G/|AF DF/A/ BGDB|cA F/G/A G2 (3gf=f|ecge dBed|cA F/G/A D2 DF/G/|
AF DF/A/ BGDB|cA F/G/A G2 (3gf=f|ecge dB (3efg|(3fed (3cBA G2:|
